src/topics/icons/yandex-ru.svg

<svg height="201" preserveAspectRatio="xMidYMid" viewBox="0 0 512 201" width="512" xmlns="http://www.w3.org/2000/svg"><path d="m83.1452991 0h-26.8815628c-26.8815629 0-50.01221005 20.004884-50.01221005 58.7643468 0 23.1306471 11.25274725 40.6349206 30.63247865 49.3870572l-36.25885227 65.015873c-1.25030526 1.875458 0 3.750916 1.87545787 3.750916h16.8791209c1.2503052 0 2.5006105-.625153 3.1257631-1.875458l33.1330891-63.765568h11.8778999v63.765568c0 .625153.6251526 1.875458 1.8754579 1.875458h15.003663c1.2503052 0 1.8754579-.625153 1.8754579-1.875458v-172.5421245c-.6251527-1.87545787-1.2503053-2.5006105-3.1257632-2.5006105zm-15.6288156 96.2735043h-10.002442c-43.1355311 0-40.009768-81.2698413-1.8754579-81.2698413h12.5030525v81.2698413z" fill="#f00"/><path d="m173.167277 58.7643468h-15.003663c-1.250305 0-1.875458.6251526-1.875458 1.8754578v45.0109894h-27.506715v-45.0109894c0-1.2503052-.625153-1.8754578-1.875458-1.8754578h-14.37851c-1.250306 0-1.875458.6251526-1.875458 1.8754578v114.4029304c0 1.250305.625152 1.875458 1.875458 1.875458h15.003663c1.250305 0 1.875457-.625153 1.875457-1.875458v-55.013431h27.506716v55.013431c0 1.250305.625153 1.875458 1.875458 1.875458h15.003663c1.250305 0 1.875458-.625153 1.875458-1.875458v-114.4029304c-.625153-1.2503052-1.250306-1.8754578-2.500611-1.8754578zm337.582418 102.5250302c0-.625152-.625153-.625152-1.250306-.625152-6.251526 0-44.385836 18.129426-44.385836-41.885226 0-26.2564105 10.002442-63.1404154 33.758242-41.2600735.625152.6251526 1.250305.6251526 1.875458.6251526.625152 0 1.250305-.6251526 1.875458-1.8754578l6.251526-10.6275947c.625152-.6251526.625152-1.2503052.625152-1.8754578 0-1.2503053-1.250305-1.8754579-2.50061-2.5006105-41.260073-20.6300367-62.515263 17.5042735-62.515263 61.8901097 0 57.514042 41.885226 65.641026 65.641026 48.136752 1.250305-.625152 1.250305-1.875458 1.250305-2.50061zm-102.525031-49.387057 28.757021-51.887668c.625153-.6251526 0-1.8754579-.625153-1.8754579h-14.37851c-4.376068 0-5.626374 1.2503053-6.876679 4.3760684s-22.505494 47.5115995-25.006105 49.3870575v-51.887668c0-.6251526-.625153-1.8754579-1.250305-1.8754579h-15.628816c-.625152 0-1.250305.6251527-1.250305 1.8754579v115.028083c0 .625153.625153 1.875458 1.250305 1.875458h15.628816c1.250305 0 1.250305-.625153 1.250305-1.875458v-59.389499c1.875458 1.250305 28.131868 55.638583 28.757021 57.514041 1.250305 2.500611 3.750916 3.750916 6.876679 3.750916h15.628815c1.250306 0 1.250306-.625153.625153-1.875458zm-136.908425 50.01221h-3.125763c-3.750916 0-4.376068-1.250305-4.376068-4.376068v-97.52381c0-1.2503052-.625153-1.8754579-1.250305-1.8754579h-48.136753c-1.250305 0-1.875457.6251527-1.875457 1.8754579 0 26.2564103.625152 70.017094-16.879121 101.899878h-5.001221c-1.250306 0-1.875458.625153-1.875458 1.875458v34.383394c0 1.250305 1.250305 1.875458 1.875458 1.875458h11.252747c2.50061 0 3.750916-1.875458 3.750916-3.750916v-19.379731h50.637362v21.255189c0 .625153.625153 1.875458 1.875458 1.875458h12.503053c1.250305 0 3.125763-1.250305 3.125763-3.750916v-32.507936c-.625153-1.250305-1.250305-1.875458-2.500611-1.875458zm-26.25641 0h-35.008547c10.002442-16.253968 19.379731-42.510379 19.379731-88.7716729h15.628816zm75.018315-106.2759464c-25.631258 0-37.509157 31.8827839-37.509157 66.8913314 0 57.514041 40.009768 66.266178 67.516483 49.387057 1.250305-.625153 1.250305-1.250305 1.250305-1.875458l-1.875458-8.126984c0-.625153-.625152-1.250305-1.875457-1.250305-10.002442 0-45.010989 17.504273-45.010989-39.384616 12.503052 1.250306 12.503052 1.250306 50.01221 1.250306-.625153-28.7570212-3.750916-66.8913314-32.507937-66.8913314zm-16.879121 52.5128204c0-45.6361415 30.007326-54.3882782 30.007326-1.250305-13.128205 0-18.754579 0-30.007326 1.250305z"/></svg>

<?xml version="1.0" encoding="UTF-8" standalone="no"?>
<svg width="512px" height="201px" viewBox="0 0 512 201" version="1.1" xmlns="http://www.w3.org/2000/svg" xmlns:xlink="http://www.w3.org/1999/xlink" preserveAspectRatio="xMidYMid">
	<g>
		<path d="M83.1452991,0 L56.2637363,0 C29.3821734,0 6.25152625,20.004884 6.25152625,58.7643468 C6.25152625,81.8949939 17.5042735,99.3992674 36.8840049,108.151404 L0.625152625,173.167277 C-0.625152625,175.042735 0.625152625,176.918193 2.5006105,176.918193 L19.3797314,176.918193 C20.6300366,176.918193 21.8803419,176.29304 22.5054945,175.042735 L55.6385836,111.277167 L67.5164835,111.277167 L67.5164835,175.042735 C67.5164835,175.667888 68.1416361,176.918193 69.3919414,176.918193 L84.3956044,176.918193 C85.6459096,176.918193 86.2710623,176.29304 86.2710623,175.042735 L86.2710623,2.5006105 C85.6459096,0.625152625 85.020757,0 83.1452991,0 L83.1452991,0 Z M67.5164835,96.2735043 L57.5140415,96.2735043 C14.3785104,96.2735043 17.5042735,15.003663 55.6385836,15.003663 L68.1416361,15.003663 L68.1416361,96.2735043 L67.5164835,96.2735043 Z" fill="#FF0000"></path>
		<path d="M173.167277,58.7643468 L158.163614,58.7643468 C156.913309,58.7643468 156.288156,59.3894994 156.288156,60.6398046 L156.288156,105.650794 L128.781441,105.650794 L128.781441,60.6398046 C128.781441,59.3894994 128.156288,58.7643468 126.905983,58.7643468 L112.527473,58.7643468 C111.277167,58.7643468 110.652015,59.3894994 110.652015,60.6398046 L110.652015,175.042735 C110.652015,176.29304 111.277167,176.918193 112.527473,176.918193 L127.531136,176.918193 C128.781441,176.918193 129.406593,176.29304 129.406593,175.042735 L129.406593,120.029304 L156.913309,120.029304 L156.913309,175.042735 C156.913309,176.29304 157.538462,176.918193 158.788767,176.918193 L173.79243,176.918193 C175.042735,176.918193 175.667888,176.29304 175.667888,175.042735 L175.667888,60.6398046 C175.042735,59.3894994 174.417582,58.7643468 173.167277,58.7643468 L173.167277,58.7643468 Z M510.749695,161.289377 C510.749695,160.664225 510.124542,160.664225 509.499389,160.664225 C503.247863,160.664225 465.113553,178.793651 465.113553,118.778999 C465.113553,92.5225885 475.115995,55.6385836 498.871795,77.5189255 C499.496947,78.1440781 500.1221,78.1440781 500.747253,78.1440781 C501.372405,78.1440781 501.997558,77.5189255 502.622711,76.2686203 L508.874237,65.6410256 C509.499389,65.015873 509.499389,64.3907204 509.499389,63.7655678 C509.499389,62.5152625 508.249084,61.8901099 506.998779,61.2649573 C465.738706,40.6349206 444.483516,78.7692308 444.483516,123.155067 C444.483516,180.669109 486.368742,188.796093 510.124542,171.291819 C511.374847,170.666667 511.374847,169.416361 511.374847,168.791209 L510.749695,161.289377 L510.749695,161.289377 Z M408.224664,111.90232 L436.981685,60.014652 C437.606838,59.3894994 436.981685,58.1391941 436.356532,58.1391941 L421.978022,58.1391941 C417.601954,58.1391941 416.351648,59.3894994 415.101343,62.5152625 C413.851038,65.6410256 392.595849,110.026862 390.095238,111.90232 L390.095238,60.014652 C390.095238,59.3894994 389.470085,58.1391941 388.844933,58.1391941 L373.216117,58.1391941 C372.590965,58.1391941 371.965812,58.7643468 371.965812,60.014652 L371.965812,175.042735 C371.965812,175.667888 372.590965,176.918193 373.216117,176.918193 L388.844933,176.918193 C390.095238,176.918193 390.095238,176.29304 390.095238,175.042735 L390.095238,115.653236 C391.970696,116.903541 418.227106,171.291819 418.852259,173.167277 C420.102564,175.667888 422.603175,176.918193 425.728938,176.918193 L441.357753,176.918193 C442.608059,176.918193 442.608059,176.29304 441.982906,175.042735 L408.224664,111.90232 L408.224664,111.90232 Z M271.316239,161.91453 L268.190476,161.91453 C264.43956,161.91453 263.814408,160.664225 263.814408,157.538462 L263.814408,60.014652 C263.814408,58.7643468 263.189255,58.1391941 262.564103,58.1391941 L214.42735,58.1391941 C213.177045,58.1391941 212.551893,58.7643468 212.551893,60.014652 C212.551893,86.2710623 213.177045,130.031746 195.672772,161.91453 L190.671551,161.91453 C189.421245,161.91453 188.796093,162.539683 188.796093,163.789988 L188.796093,198.173382 C188.796093,199.423687 190.046398,200.04884 190.671551,200.04884 L201.924298,200.04884 C204.424908,200.04884 205.675214,198.173382 205.675214,196.297924 L205.675214,176.918193 L256.312576,176.918193 L256.312576,198.173382 C256.312576,198.798535 256.937729,200.04884 258.188034,200.04884 L270.691087,200.04884 C271.941392,200.04884 273.81685,198.798535 273.81685,196.297924 L273.81685,163.789988 C273.191697,162.539683 272.566545,161.91453 271.316239,161.91453 L271.316239,161.91453 Z M245.059829,161.91453 L210.051282,161.91453 C220.053724,145.660562 229.431013,119.404151 229.431013,73.1428571 L245.059829,73.1428571 L245.059829,161.91453 L245.059829,161.91453 Z M320.078144,55.6385836 C294.446886,55.6385836 282.568987,87.5213675 282.568987,122.529915 C282.568987,180.043956 322.578755,188.796093 350.08547,171.916972 C351.335775,171.291819 351.335775,170.666667 351.335775,170.041514 L349.460317,161.91453 C349.460317,161.289377 348.835165,160.664225 347.58486,160.664225 C337.582418,160.664225 302.573871,178.168498 302.573871,121.279609 C315.076923,122.529915 315.076923,122.529915 352.586081,122.529915 C351.960928,93.7728938 348.835165,55.6385836 320.078144,55.6385836 L320.078144,55.6385836 Z M303.199023,108.151404 C303.199023,62.5152625 333.206349,53.7631258 333.206349,106.901099 C320.078144,106.901099 314.45177,106.901099 303.199023,108.151404 L303.199023,108.151404 Z" fill="#000000"></path>
	</g>
</svg>
